src/assets/images/icons/elevate.svg

<svg xmlns="http://www.w3.org/2000/svg" width="29" height="27" viewBox="0 0 29 27" fill="none"><path d="M19.1987 10.1973C18.7471 9.83604 18.0923 9.90378 17.6858 10.3102L12.989 15.007L10.9116 12.9296C10.5052 12.5231 9.82776 12.4328 9.39873 12.8167C8.87937 13.2457 8.85679 13.9909 9.3084 14.4651L12.4245 17.5812C12.7407 17.8973 13.26 17.8973 13.5761 17.5812L19.289 11.8457C19.7407 11.3715 19.7181 10.6264 19.1987 10.1973Z" fill="#1F3D56"></path><path d="M28.2761 12.4107C28.2535 12.0946 28.0955 11.8913 27.7793 11.7784C26.0858 11.1688 24.8439 10.0849 23.9858 8.41392C23.4439 7.37521 23.1277 6.38167 23.06 5.43328C23.0374 5.07199 23.0374 4.7107 23.0826 4.34941C23.1052 4.1236 23.1503 3.87521 23.1955 3.62683C23.2181 3.58167 23.2181 3.5365 23.2181 3.49134C23.2181 3.4236 23.2181 3.35586 23.2181 3.28812C23.1955 3.03973 23.06 2.8365 22.789 2.67844C22.4729 2.49779 22.1793 2.31715 21.8632 2.11392L21.6826 2.00102C21.2084 1.73005 20.689 1.41392 20.1923 1.09779C19.8084 0.871988 19.4697 0.962311 19.289 1.05263C19.2213 1.09779 19.131 1.14296 19.0406 1.2107L18.9503 1.27844C18.6568 1.50425 18.3181 1.77521 17.9793 1.97844C17.8213 2.06876 17.6858 2.11392 17.5503 2.18167C16.2406 2.63328 15.0439 2.8365 13.9374 2.76876C12.4245 2.67844 11.0923 2.11392 9.8729 1.03005C9.46645 0.668762 9.12774 0.736504 8.81161 0.917149C7.95354 1.41392 7.0729 1.9107 6.16967 2.38489C5.96645 2.49779 5.83096 2.63328 5.76322 2.79134C5.74064 2.85908 5.71806 2.90425 5.71806 2.97199C5.69548 3.08489 5.71806 3.19779 5.74064 3.33328C5.7858 3.64941 5.83096 3.96554 5.83096 4.28167V4.30425C5.85354 4.68812 5.83096 5.07199 5.7858 5.43328C5.74064 5.83973 5.65032 6.2236 5.51483 6.60747C5.06322 8.00747 4.09225 9.27199 2.62451 10.4462C2.51161 10.5365 2.37612 10.6268 2.21806 10.7171C1.87935 10.8978 1.4729 11.0559 1.11161 11.1688L1.02128 11.2139C0.908381 11.2365 0.818058 11.2817 0.750317 11.3268C0.547091 11.4397 0.434188 11.5752 0.366446 11.7559C0.343865 11.8236 0.321284 11.8688 0.321284 11.9365V11.9591C0.321284 12.0042 0.321284 12.0268 0.321284 12.072V12.1171C0.321284 12.2752 0.321284 12.4333 0.321284 12.5913C0.321284 12.8623 0.321284 13.1559 0.298704 13.4268C0.298704 13.5849 0.298704 13.743 0.298704 13.8784V13.9688C0.298704 14.3301 0.276123 14.7139 0.276123 15.0752V15.1655C0.276123 15.2107 0.276123 15.2784 0.276123 15.3236C0.321284 15.6623 0.501929 15.8655 0.86322 16.001C2.37612 16.5204 3.52774 17.5365 4.4987 19.1849C5.31161 20.5849 5.62774 21.9849 5.46967 23.4526C5.44709 23.701 5.40193 23.9494 5.33419 24.1978C5.33419 24.2204 5.31161 24.2655 5.31161 24.2881C5.26645 24.6042 5.40193 24.8526 5.71806 25.0333C6.71161 25.643 7.56967 26.1623 8.42774 26.6591C8.51806 26.7042 8.67612 26.7946 8.83419 26.7946C8.94709 26.7946 9.08257 26.772 9.19548 26.7042C9.26322 26.6591 9.35354 26.5913 9.42128 26.5236C9.71483 26.2301 10.0535 25.9817 10.4374 25.7559C11.589 25.1236 13.1697 24.8301 14.7503 24.9881C16.3535 25.1462 17.7535 25.7333 18.589 26.6365C18.7245 26.772 18.9277 26.9526 19.1987 26.9752H19.2664C19.4245 26.9752 19.6052 26.9301 19.831 26.7946C20.3052 26.5236 20.7568 26.2752 21.0729 26.0946C21.389 25.9139 21.8406 25.6655 22.3374 25.3946C22.6084 25.2591 22.7439 25.0784 22.8116 24.9204C22.8342 24.8526 22.8568 24.8075 22.8568 24.7397C22.8793 24.5817 22.8568 24.4462 22.8116 24.3107C22.7664 24.1301 22.7439 23.972 22.6987 23.7913C22.6761 23.4978 22.6535 23.1817 22.6761 22.8655C22.6987 22.5042 22.7664 22.1204 22.8568 21.7365C22.9923 21.2172 23.1729 20.6978 23.4439 20.1784C24.1439 18.7559 25.2277 17.5591 26.3793 16.9268C26.7632 16.701 27.1697 16.5655 27.5761 16.4752C27.7568 16.4301 28.0052 16.3397 28.1181 16.0688C28.1406 16.0236 28.1632 15.9559 28.1632 15.9107C28.1632 15.8881 28.1858 15.8655 28.1858 15.8204C28.1858 15.7752 28.1858 15.7301 28.2084 15.6849C28.2084 15.4365 28.231 15.2107 28.231 14.9623C28.2535 14.1268 28.2535 13.3139 28.2535 12.5462C28.2761 12.501 28.2761 12.4559 28.2761 12.4107ZM22.4503 14.9397C22.36 15.6397 22.1793 16.3171 21.9084 16.972C21.231 18.6204 19.989 20.0881 18.2955 21.0365C16.8955 21.7817 15.3374 22.143 13.7793 22.0526C11.0697 21.8946 8.63096 20.4042 7.27612 18.101C6.30516 16.4526 5.92128 14.5784 6.14709 12.7494C6.19225 12.3881 6.25999 12.0494 6.35032 11.7107C6.46322 11.3042 6.5987 10.9204 6.75677 10.5365C6.80193 10.4236 6.84709 10.3107 6.91483 10.1978C6.91483 10.1752 6.93741 10.1752 6.93741 10.1526C7.65999 8.70747 8.83419 7.48812 10.3245 6.65263C11.7019 5.88489 13.2374 5.54618 14.7729 5.6365C15.4052 5.68167 16.0374 5.79457 16.6471 5.97521C18.8148 6.65263 20.5761 8.12037 21.6374 10.1752C22.4277 11.6881 22.6761 13.3591 22.4503 14.9397Z" fill="#1F3D56"></path></svg>

<svg xmlns="http://www.w3.org/2000/svg" width="29" height="27" fill="none"><path d="M19.199 10.197c-.452-.361-1.107-.293-1.513.113l-4.697 4.697-2.077-2.077c-.407-.407-1.084-.497-1.513-.113a1.117 1.117 0 00-.09 1.648l3.116 3.116a.818.818 0 001.151 0l5.713-5.735c.452-.475.43-1.22-.09-1.649z" fill="#1F3D56"/><path d="M28.276 12.41c-.023-.315-.18-.519-.497-.632-1.693-.61-2.935-1.693-3.793-3.364-.542-1.039-.858-2.032-.926-2.98a5.792 5.792 0 01.023-1.085c.022-.225.067-.474.113-.722.022-.045.022-.09.022-.136v-.203c-.023-.248-.158-.451-.429-.61-.316-.18-.61-.36-.926-.564L21.683 2a37.542 37.542 0 01-1.49-.903.924.924 0 00-.904-.045c-.068.045-.158.09-.248.158l-.09.067c-.294.226-.633.497-.972.7-.158.09-.293.136-.429.204-1.31.451-2.506.655-3.613.587-1.512-.09-2.845-.655-4.064-1.739C9.466.669 9.128.737 8.812.917A73.07 73.07 0 016.17 2.385c-.204.113-.339.248-.407.406-.022.068-.045.113-.045.181-.023.113 0 .226.023.361.045.316.09.633.09.949v.022c.023.384 0 .768-.045 1.13-.045.406-.136.79-.271 1.173-.452 1.4-1.423 2.665-2.89 3.84a3.17 3.17 0 01-.407.27 6.69 6.69 0 01-1.106.452l-.09.045a.755.755 0 00-.272.113.781.781 0 00-.384.429c-.022.068-.045.113-.045.18v.655c0 .271 0 .565-.022.836v.541c0 .362-.023.746-.023 1.107v.249c.045.338.226.542.587.677 1.513.52 2.665 1.535 3.636 3.184.813 1.4 1.129 2.8.97 4.268a4.312 4.312 0 01-.135.745c0 .022-.022.067-.022.09-.046.316.09.565.406.745.994.61 1.852 1.13 2.71 1.626.09.045.248.136.406.136a.715.715 0 00.361-.09 1.58 1.58 0 00.226-.181 5.002 5.002 0 011.016-.768c1.152-.632 2.733-.926 4.313-.768 1.604.158 3.003.745 3.839 1.649.136.135.339.316.61.338h.067c.159 0 .34-.045.565-.18.474-.271.926-.52 1.242-.7.316-.181.768-.43 1.264-.7a.95.95 0 00.475-.475c.022-.067.045-.113.045-.18a.903.903 0 00-.045-.43c-.046-.18-.068-.338-.113-.519a6.257 6.257 0 01-.023-.925c.023-.362.09-.746.18-1.13a7.31 7.31 0 01.588-1.558c.7-1.422 1.784-2.619 2.935-3.251.384-.226.79-.361 1.197-.452.18-.045.43-.135.542-.406a.42.42 0 00.045-.158c0-.023.023-.045.023-.09 0-.046 0-.09.022-.136 0-.248.023-.474.023-.723.022-.835.022-1.648.022-2.416.023-.045.023-.09.023-.135zm-5.826 2.53c-.09.7-.27 1.377-.542 2.032a8.277 8.277 0 01-3.613 4.064c-1.4.746-2.958 1.107-4.516 1.017A8.084 8.084 0 017.276 18.1a8.478 8.478 0 01-1.129-5.352c.045-.36.113-.7.203-1.038.113-.407.249-.79.407-1.175.045-.112.09-.225.158-.338 0-.023.022-.023.022-.045.723-1.446 1.897-2.665 3.388-3.5a8.125 8.125 0 014.448-1.016 8.83 8.83 0 011.874.338 8.36 8.36 0 014.99 4.2 7.875 7.875 0 01.813 4.765z" fill="#1F3D56"/></svg>
